X:23
T:John Campbell Jr.'s Reel
R:reel
C:John Campbell
D:John Campbell, Cape Breton Violin Music (1975-2006)
Z:Paul Stewart Cranford (P.S.C.), <http://www.cranfordpub.com>
L:1/8
M:C|
Q:333
K:A
agfb fecf|eAfA eAce|agfb f<ecf|ecBA =g2 f^g|
agfb fecf|eAfA eAcA|defd cdec|[1Bcde =g2 f^g:|[2Bcde =g2 fb||
|:eA A/A/A fecf|eAfA ecBc|eA A/A/A fecf|Bcde =g2 fb|
eA A/A/A fecf|eAfA eAcA|defd cdec|Bcde =g2 fb:|
|:f2 ef ecBc|AFEC EA,A,b|f2 ef ecBA|Bcde =g2 fb|
f2 ef ecBc|AFEC EA,A,c|defd cdec|Bcde =g2 fb:|
|:f<dAd f2 ed|cAeA fcec|Bcde fecA|Bcde =g2 fb|
f<dAd f2 ed|cAeA fcec|defd cdec|[1Bcde =g2 fb:|[2Bcde =g2 f^g|]
